images/3234594.svg

<?xml version="1.0" encoding="UTF-8"?>
<svg xmlns="http://www.w3.org/2000/svg" xmlns:xlink="http://www.w3.org/1999/xlink" width="300pt" height="300pt" viewBox="0 0 300 300" version="1.1">
<defs>
<g>
<symbol overflow="visible" id="glyph0-0">
<path style="stroke:none;" d="M 0.453125 1.59375 L 0.453125 -6.34375 L 4.953125 -6.34375 L 4.953125 1.59375 Z M 0.953125 1.09375 L 4.453125 1.09375 L 4.453125 -5.84375 L 0.953125 -5.84375 Z M 0.953125 1.09375 "/>
</symbol>
<symbol overflow="visible" id="glyph0-1">
<path style="stroke:none;" d="M 0.890625 -6.5625 L 2.078125 -6.5625 L 4.984375 -1.078125 L 4.984375 -6.5625 L 5.84375 -6.5625 L 5.84375 0 L 4.65625 0 L 1.75 -5.484375 L 1.75 0 L 0.890625 0 Z M 0.890625 -6.5625 "/>
</symbol>
<symbol overflow="visible" id="glyph0-2">
<path style="stroke:none;" d="M 3.546875 -5.953125 C 2.898438 -5.953125 2.382812 -5.710938 2 -5.234375 C 1.625 -4.753906 1.4375 -4.101562 1.4375 -3.28125 C 1.4375 -2.445312 1.625 -1.789062 2 -1.3125 C 2.382812 -0.832031 2.898438 -0.59375 3.546875 -0.59375 C 4.191406 -0.59375 4.703125 -0.832031 5.078125 -1.3125 C 5.453125 -1.789062 5.640625 -2.445312 5.640625 -3.28125 C 5.640625 -4.101562 5.453125 -4.753906 5.078125 -5.234375 C 4.703125 -5.710938 4.191406 -5.953125 3.546875 -5.953125 Z M 3.546875 -6.6875 C 4.460938 -6.6875 5.195312 -6.375 5.75 -5.75 C 6.300781 -5.132812 6.578125 -4.3125 6.578125 -3.28125 C 6.578125 -2.238281 6.300781 -1.410156 5.75 -0.796875 C 5.195312 -0.179688 4.460938 0.125 3.546875 0.125 C 2.617188 0.125 1.878906 -0.179688 1.328125 -0.796875 C 0.773438 -1.410156 0.5 -2.238281 0.5 -3.28125 C 0.5 -4.3125 0.773438 -5.132812 1.328125 -5.75 C 1.878906 -6.375 2.617188 -6.6875 3.546875 -6.6875 Z M 3.546875 -6.6875 "/>
</symbol>
</g>
</defs>
<g id="surface51837">
<rect x="0" y="0" width="300" height="300" style="fill:rgb(100%,100%,100%);fill-opacity:1;stroke:none;"/>
<path style="fill:none;stroke-width:1.2;stroke-linecap:butt;stroke-linejoin:miter;stroke:rgb(0%,0%,0%);stroke-opacity:1;stroke-miterlimit:10;" d="M 35.25 155.621094 L 51.480469 140.199219 "/>
<path style="fill:none;stroke-width:1.2;stroke-linecap:butt;stroke-linejoin:miter;stroke:rgb(0%,0%,0%);stroke-opacity:1;stroke-miterlimit:10;" d="M 51.480469 140.199219 L 73.5 144.265625 "/>
<path style="fill:none;stroke-width:1.2;stroke-linecap:butt;stroke-linejoin:miter;stroke:rgb(0%,0%,0%);stroke-opacity:1;stroke-miterlimit:10;" d="M 54.640625 135.425781 L 72.253906 138.679688 "/>
<path style="fill:none;stroke-width:1.2;stroke-linecap:butt;stroke-linejoin:miter;stroke:rgb(100%,0%,0%);stroke-opacity:1;stroke-miterlimit:10;" d="M 48.546875 118.003906 L 50.015625 129.101562 "/>
<path style="fill:none;stroke-width:1.2;stroke-linecap:butt;stroke-linejoin:miter;stroke:rgb(0%,0%,0%);stroke-opacity:1;stroke-miterlimit:10;" d="M 50.015625 129.101562 L 51.480469 140.199219 "/>
<path style="fill:none;stroke-width:1.2;stroke-linecap:butt;stroke-linejoin:miter;stroke:rgb(0%,0%,0%);stroke-opacity:1;stroke-miterlimit:10;" d="M 73.5 144.265625 L 84.171875 124.582031 "/>
<path style="fill:none;stroke-width:1.2;stroke-linecap:butt;stroke-linejoin:miter;stroke:rgb(0%,0%,0%);stroke-opacity:1;stroke-miterlimit:10;" d="M 73.5 144.265625 L 83.152344 164.472656 "/>
<path style="fill:none;stroke-width:1.2;stroke-linecap:butt;stroke-linejoin:miter;stroke:rgb(0%,0%,0%);stroke-opacity:1;stroke-miterlimit:10;" d="M 84.171875 124.582031 L 76.460938 116.46875 "/>
<path style="fill:none;stroke-width:1.2;stroke-linecap:butt;stroke-linejoin:miter;stroke:rgb(0%,0%,100%);stroke-opacity:1;stroke-miterlimit:10;" d="M 76.460938 116.46875 L 68.75 108.351562 "/>
<path style="fill:none;stroke-width:1.2;stroke-linecap:butt;stroke-linejoin:miter;stroke:rgb(0%,0%,0%);stroke-opacity:1;stroke-miterlimit:10;" d="M 78.8125 126.589844 L 72.640625 120.097656 "/>
<path style="fill:none;stroke-width:1.2;stroke-linecap:butt;stroke-linejoin:miter;stroke:rgb(0%,0%,100%);stroke-opacity:1;stroke-miterlimit:10;" d="M 72.640625 120.097656 L 66.472656 113.605469 "/>
<path style="fill:none;stroke-width:1.2;stroke-linecap:butt;stroke-linejoin:miter;stroke:rgb(0%,0%,0%);stroke-opacity:1;stroke-miterlimit:10;" d="M 84.171875 124.582031 L 106.371094 121.648438 "/>
<path style="fill:none;stroke-width:1.2;stroke-linecap:butt;stroke-linejoin:miter;stroke:rgb(0%,0%,100%);stroke-opacity:1;stroke-miterlimit:10;" d="M 68.75 108.351562 L 58.648438 113.175781 "/>
<path style="fill:none;stroke-width:1.2;stroke-linecap:butt;stroke-linejoin:miter;stroke:rgb(100%,0%,0%);stroke-opacity:1;stroke-miterlimit:10;" d="M 58.648438 113.175781 L 48.546875 118.003906 "/>
<path style=" stroke:none;fill-rule:nonzero;fill:rgb(100%,100%,100%);fill-opacity:1;" d="M 65.75 102.851562 L 72.75 102.851562 L 72.75 113.851562 L 65.75 113.851562 Z M 65.75 102.851562 "/>
<g style="fill:rgb(0%,0%,100%);fill-opacity:1;">
  <use xlink:href="#glyph0-1" x="65.75" y="111.514648"/>
</g>
<path style=" stroke:none;fill-rule:nonzero;fill:rgb(100%,100%,100%);fill-opacity:1;" d="M 44.546875 112.503906 L 52.546875 112.503906 L 52.546875 123.503906 L 44.546875 123.503906 Z M 44.546875 112.503906 "/>
<g style="fill:rgb(100%,0%,0%);fill-opacity:1;">
  <use xlink:href="#glyph0-2" x="44.546875" y="121.166992"/>
</g>
<path style="fill:none;stroke-width:1.2;stroke-linecap:butt;stroke-linejoin:miter;stroke:rgb(0%,0%,0%);stroke-opacity:1;stroke-miterlimit:10;" d="M 80.980469 162.980469 L 74.644531 172.210938 "/>
<path style="fill:none;stroke-width:1.2;stroke-linecap:butt;stroke-linejoin:miter;stroke:rgb(100%,0%,0%);stroke-opacity:1;stroke-miterlimit:10;" d="M 74.644531 172.210938 L 68.308594 181.441406 "/>
<path style="fill:none;stroke-width:1.2;stroke-linecap:butt;stroke-linejoin:miter;stroke:rgb(0%,0%,0%);stroke-opacity:1;stroke-miterlimit:10;" d="M 85.324219 165.960938 L 78.988281 175.191406 "/>
<path style="fill:none;stroke-width:1.2;stroke-linecap:butt;stroke-linejoin:miter;stroke:rgb(100%,0%,0%);stroke-opacity:1;stroke-miterlimit:10;" d="M 78.988281 175.191406 L 72.652344 184.421875 "/>
<path style="fill:none;stroke-width:1.2;stroke-linecap:butt;stroke-linejoin:miter;stroke:rgb(0%,0%,0%);stroke-opacity:1;stroke-miterlimit:10;" d="M 83.152344 164.472656 L 94.3125 165.34375 "/>
<path style="fill:none;stroke-width:1.2;stroke-linecap:butt;stroke-linejoin:miter;stroke:rgb(0%,0%,100%);stroke-opacity:1;stroke-miterlimit:10;" d="M 94.3125 165.34375 L 105.472656 166.214844 "/>
<path style=" stroke:none;fill-rule:nonzero;fill:rgb(100%,100%,100%);fill-opacity:1;" d="M 62.480469 177.429688 L 70.480469 177.429688 L 70.480469 188.429688 L 62.480469 188.429688 Z M 62.480469 177.429688 "/>
<g style="fill:rgb(100%,0%,0%);fill-opacity:1;">
  <use xlink:href="#glyph0-2" x="62.480469" y="186.092773"/>
</g>
<path style="fill:none;stroke-width:1.2;stroke-linecap:butt;stroke-linejoin:miter;stroke:rgb(0%,0%,100%);stroke-opacity:1;stroke-miterlimit:10;" d="M 105.472656 166.214844 L 110.300781 176.316406 "/>
<path style="fill:none;stroke-width:1.2;stroke-linecap:butt;stroke-linejoin:miter;stroke:rgb(0%,0%,0%);stroke-opacity:1;stroke-miterlimit:10;" d="M 110.300781 176.316406 L 115.125 186.417969 "/>
<path style="fill:none;stroke-width:1.2;stroke-linecap:butt;stroke-linejoin:miter;stroke:rgb(0%,0%,0%);stroke-opacity:1;stroke-miterlimit:10;" d="M 118.144531 147.753906 L 111.808594 156.984375 "/>
<path style="fill:none;stroke-width:1.2;stroke-linecap:butt;stroke-linejoin:miter;stroke:rgb(0%,0%,100%);stroke-opacity:1;stroke-miterlimit:10;" d="M 111.808594 156.984375 L 105.472656 166.214844 "/>
<path style=" stroke:none;fill-rule:nonzero;fill:rgb(100%,100%,100%);fill-opacity:1;" d="M 102.472656 160.714844 L 109.472656 160.714844 L 109.472656 171.714844 L 102.472656 171.714844 Z M 102.472656 160.714844 "/>
<g style="fill:rgb(0%,0%,100%);fill-opacity:1;">
  <use xlink:href="#glyph0-1" x="102.472656" y="169.37793"/>
</g>
<path style="fill:none;stroke-width:1.2;stroke-linecap:butt;stroke-linejoin:miter;stroke:rgb(0%,0%,0%);stroke-opacity:1;stroke-miterlimit:10;" d="M 115.125 186.417969 L 137.449219 188.160156 "/>
<path style="fill:none;stroke-width:1.2;stroke-linecap:butt;stroke-linejoin:miter;stroke:rgb(0%,0%,0%);stroke-opacity:1;stroke-miterlimit:10;" d="M 137.449219 188.160156 L 150.117188 169.703125 "/>
<path style="fill:none;stroke-width:1.2;stroke-linecap:butt;stroke-linejoin:miter;stroke:rgb(0%,0%,0%);stroke-opacity:1;stroke-miterlimit:10;" d="M 150.117188 169.703125 L 159.769531 189.90625 "/>
<path style="fill:none;stroke-width:1.2;stroke-linecap:butt;stroke-linejoin:miter;stroke:rgb(0%,0%,0%);stroke-opacity:1;stroke-miterlimit:10;" d="M 150.117188 169.703125 L 140.46875 149.496094 "/>
<path style="fill:none;stroke-width:1.2;stroke-linecap:butt;stroke-linejoin:miter;stroke:rgb(0%,0%,0%);stroke-opacity:1;stroke-miterlimit:10;" d="M 162.789062 151.242188 L 150.117188 169.703125 "/>
<path style="fill:none;stroke-width:1.2;stroke-linecap:butt;stroke-linejoin:miter;stroke:rgb(0%,0%,0%);stroke-opacity:1;stroke-miterlimit:10;" d="M 159.769531 189.90625 L 182.09375 191.648438 "/>
<path style="fill:none;stroke-width:1.2;stroke-linecap:butt;stroke-linejoin:miter;stroke:rgb(0%,0%,0%);stroke-opacity:1;stroke-miterlimit:10;" d="M 182.09375 191.648438 L 194.761719 173.1875 "/>
<path style="fill:none;stroke-width:1.2;stroke-linecap:butt;stroke-linejoin:miter;stroke:rgb(0%,0%,0%);stroke-opacity:1;stroke-miterlimit:10;" d="M 194.761719 173.1875 L 189.9375 163.085938 "/>
<path style="fill:none;stroke-width:1.2;stroke-linecap:butt;stroke-linejoin:miter;stroke:rgb(0%,0%,100%);stroke-opacity:1;stroke-miterlimit:10;" d="M 189.9375 163.085938 L 185.113281 152.984375 "/>
<path style="fill:none;stroke-width:1.2;stroke-linecap:butt;stroke-linejoin:miter;stroke:rgb(0%,0%,100%);stroke-opacity:1;stroke-miterlimit:10;" d="M 185.113281 152.984375 L 173.949219 152.113281 "/>
<path style="fill:none;stroke-width:1.2;stroke-linecap:butt;stroke-linejoin:miter;stroke:rgb(0%,0%,0%);stroke-opacity:1;stroke-miterlimit:10;" d="M 173.949219 152.113281 L 162.789062 151.242188 "/>
<path style="fill:none;stroke-width:1.2;stroke-linecap:butt;stroke-linejoin:miter;stroke:rgb(0%,0%,100%);stroke-opacity:1;stroke-miterlimit:10;" d="M 185.113281 152.984375 L 191.449219 143.753906 "/>
<path style="fill:none;stroke-width:1.2;stroke-linecap:butt;stroke-linejoin:miter;stroke:rgb(0%,0%,0%);stroke-opacity:1;stroke-miterlimit:10;" d="M 191.449219 143.753906 L 197.78125 134.523438 "/>
<path style=" stroke:none;fill-rule:nonzero;fill:rgb(100%,100%,100%);fill-opacity:1;" d="M 182.113281 147.484375 L 189.113281 147.484375 L 189.113281 158.484375 L 182.113281 158.484375 Z M 182.113281 147.484375 "/>
<g style="fill:rgb(0%,0%,100%);fill-opacity:1;">
  <use xlink:href="#glyph0-1" x="182.113281" y="156.147461"/>
</g>
<path style="fill:none;stroke-width:1.2;stroke-linecap:butt;stroke-linejoin:miter;stroke:rgb(0%,0%,0%);stroke-opacity:1;stroke-miterlimit:10;" d="M 197.78125 134.523438 L 220.105469 136.269531 "/>
<path style="fill:none;stroke-width:1.2;stroke-linecap:butt;stroke-linejoin:miter;stroke:rgb(0%,0%,0%);stroke-opacity:1;stroke-miterlimit:10;" d="M 220.105469 136.269531 L 229.757812 156.472656 "/>
<path style="fill:none;stroke-width:1.2;stroke-linecap:butt;stroke-linejoin:miter;stroke:rgb(0%,0%,0%);stroke-opacity:1;stroke-miterlimit:10;" d="M 225.824219 136.019531 L 233.546875 152.179688 "/>
<path style="fill:none;stroke-width:1.2;stroke-linecap:butt;stroke-linejoin:miter;stroke:rgb(0%,0%,0%);stroke-opacity:1;stroke-miterlimit:10;" d="M 232.777344 117.808594 L 220.105469 136.269531 "/>
<path style="fill:none;stroke-width:1.2;stroke-linecap:butt;stroke-linejoin:miter;stroke:rgb(0%,0%,0%);stroke-opacity:1;stroke-miterlimit:10;" d="M 229.757812 156.472656 L 252.078125 158.214844 "/>
<path style="fill:none;stroke-width:1.2;stroke-linecap:butt;stroke-linejoin:miter;stroke:rgb(0%,0%,0%);stroke-opacity:1;stroke-miterlimit:10;" d="M 252.078125 158.214844 L 264.75 139.753906 "/>
<path style="fill:none;stroke-width:1.2;stroke-linecap:butt;stroke-linejoin:miter;stroke:rgb(0%,0%,0%);stroke-opacity:1;stroke-miterlimit:10;" d="M 249.003906 153.386719 L 259.140625 138.621094 "/>
<path style="fill:none;stroke-width:1.2;stroke-linecap:butt;stroke-linejoin:miter;stroke:rgb(0%,0%,0%);stroke-opacity:1;stroke-miterlimit:10;" d="M 264.75 139.753906 L 255.097656 119.550781 "/>
<path style="fill:none;stroke-width:1.2;stroke-linecap:butt;stroke-linejoin:miter;stroke:rgb(0%,0%,0%);stroke-opacity:1;stroke-miterlimit:10;" d="M 255.097656 119.550781 L 232.777344 117.808594 "/>
<path style="fill:none;stroke-width:1.2;stroke-linecap:butt;stroke-linejoin:miter;stroke:rgb(0%,0%,0%);stroke-opacity:1;stroke-miterlimit:10;" d="M 252.457031 124.628906 L 234.597656 123.234375 "/>
<path style="fill:none;stroke-width:1.2;stroke-linecap:butt;stroke-linejoin:miter;stroke:rgb(0%,0%,0%);stroke-opacity:1;stroke-miterlimit:10;" d="M 140.46875 149.496094 L 118.144531 147.753906 "/>
</g>
</svg>

<svg xmlns="http://www.w3.org/2000/svg" xmlns:xlink="http://www.w3.org/1999/xlink" width="300pt" height="300pt" viewBox="0 0 300 300"><defs><symbol overflow="visible"><path d="M.453 1.594v-7.938h4.5v7.938zm.5-.5h3.5v-6.938h-3.5zm0 0"/></symbol><symbol overflow="visible" id="a"><path d="M.89-6.563H2.08l2.906 5.485v-5.484h.86V0H4.656L1.75-5.484V0H.89zm0 0"/></symbol><symbol overflow="visible" id="b"><path d="M3.547-5.953c-.65 0-1.164.242-1.547.72-.375.48-.563 1.13-.563 1.952 0 .835.188 1.49.563 1.967.383.48.898.72 1.547.72.644 0 1.156-.24 1.53-.72.376-.476.564-1.132.564-1.968 0-.822-.187-1.474-.562-1.954-.375-.477-.887-.72-1.53-.72zm0-.734c.914 0 1.648.312 2.203.937.55.617.828 1.438.828 2.47 0 1.042-.277 1.87-.828 2.483-.555.617-1.29.922-2.203.922-.93 0-1.668-.305-2.22-.922C.774-1.41.5-2.237.5-3.28c0-1.033.273-1.853.828-2.47.55-.625 1.29-.938 2.22-.938zm0 0"/></symbol></defs><g><path fill="#fff" d="M0 0h300v300H0z"/><path d="M35.25 155.62l16.23-15.42M51.48 140.2l22.02 4.066M54.64 135.426l17.614 3.254" stroke-width="1.2" stroke="#000" stroke-miterlimit="10" fill="none"/><path d="M48.547 118.004l1.47 11.098" stroke-width="1.2" stroke="#f00" stroke-miterlimit="10" fill="none"/><path d="M50.016 129.102L51.48 140.2M73.5 144.266l10.672-19.684M73.5 144.266l9.652 20.207M84.172 124.582l-7.71-8.113" stroke-width="1.2" stroke="#000" stroke-miterlimit="10" fill="none"/><path d="M76.46 116.47l-7.71-8.118" stroke-width="1.2" stroke="#00f" stroke-miterlimit="10" fill="none"/><path d="M78.813 126.59l-6.172-6.492" stroke-width="1.2" stroke="#000" stroke-miterlimit="10" fill="none"/><path d="M72.64 120.098l-6.167-6.493" stroke-width="1.2" stroke="#00f" stroke-miterlimit="10" fill="none"/><path d="M84.172 124.582l22.2-2.934" stroke-width="1.2" stroke="#000" stroke-miterlimit="10" fill="none"/><path d="M68.75 108.352l-10.102 4.824" stroke-width="1.2" stroke="#00f" stroke-miterlimit="10" fill="none"/><path d="M58.648 113.176l-10.1 4.828" stroke-width="1.2" stroke="#f00" stroke-miterlimit="10" fill="none"/><path d="M65.75 102.852h7v11h-7zm0 0" fill="#fff"/><use xlink:href="#a" x="65.75" y="111.515" fill="#00f"/><path d="M44.547 112.504h8v11h-8zm0 0" fill="#fff"/><use xlink:href="#b" x="44.547" y="121.167" fill="#f00"/><path d="M80.98 162.98l-6.335 9.23" stroke-width="1.2" stroke="#000" stroke-miterlimit="10" fill="none"/><path d="M74.645 172.21l-6.336 9.23" stroke-width="1.2" stroke="#f00" stroke-miterlimit="10" fill="none"/><path d="M85.324 165.96l-6.336 9.23" stroke-width="1.2" stroke="#000" stroke-miterlimit="10" fill="none"/><path d="M78.988 175.19l-6.336 9.232" stroke-width="1.2" stroke="#f00" stroke-miterlimit="10" fill="none"/><path d="M83.152 164.473l11.16.87" stroke-width="1.2" stroke="#000" stroke-miterlimit="10" fill="none"/><path d="M94.313 165.344l11.16.87" stroke-width="1.2" stroke="#00f" stroke-miterlimit="10" fill="none"/><path d="M62.48 177.43h8v11h-8zm0 0" fill="#fff"/><use xlink:href="#b" x="62.48" y="186.093" fill="#f00"/><path d="M105.473 166.215l4.828 10.1" stroke-width="1.2" stroke="#00f" stroke-miterlimit="10" fill="none"/><path d="M110.3 176.316l4.825 10.102M118.145 147.754l-6.336 9.23" stroke-width="1.2" stroke="#000" stroke-miterlimit="10" fill="none"/><path d="M111.81 156.984l-6.337 9.23" stroke-width="1.2" stroke="#00f" stroke-miterlimit="10" fill="none"/><path d="M102.473 160.715h7v11h-7zm0 0" fill="#fff"/><use xlink:href="#a" x="102.473" y="169.378" fill="#00f"/><path d="M115.125 186.418l22.324 1.742M137.45 188.16l12.667-18.457M150.117 169.703l9.653 20.203M150.117 169.703l-9.648-20.207M162.79 151.242l-12.673 18.46M159.77 189.906l22.324 1.742M182.094 191.648l12.668-18.46M194.762 173.188l-4.825-10.102" stroke-width="1.2" stroke="#000" stroke-miterlimit="10" fill="none"/><path d="M189.938 163.086l-4.825-10.102M185.113 152.984l-11.164-.87" stroke-width="1.2" stroke="#00f" stroke-miterlimit="10" fill="none"/><path d="M173.95 152.113l-11.16-.87" stroke-width="1.2" stroke="#000" stroke-miterlimit="10" fill="none"/><path d="M185.113 152.984l6.336-9.23" stroke-width="1.2" stroke="#00f" stroke-miterlimit="10" fill="none"/><path d="M191.45 143.754l6.33-9.23" stroke-width="1.2" stroke="#000" stroke-miterlimit="10" fill="none"/><path d="M182.113 147.484h7v11h-7zm0 0" fill="#fff"/><use xlink:href="#a" x="182.113" y="156.147" fill="#00f"/><path d="M197.78 134.523l22.325 1.747M220.105 136.27l9.653 20.203M225.824 136.02l7.723 16.16M232.777 117.81l-12.672 18.46M229.758 156.473l22.32 1.742M252.078 158.215l12.672-18.46M249.004 153.387l10.137-14.766M264.75 139.754l-9.652-20.203M255.098 119.55l-22.32-1.74M252.457 124.63l-17.86-1.396M140.47 149.496l-22.325-1.742" stroke-width="1.2" stroke="#000" stroke-miterlimit="10" fill="none"/></g></svg>
